X:1
T: Wait a While
C:
R:Jig
Q:180
K:A
M:6/8
L:1/16
|:B2|c2d2e2 e2c2a2|c2A2c2 e4d2|c2d2e2 e2f2=g2|B2G2G2 d4B2|
c2d2e2 e2f2g2|a2g2f2 e2d2c2|d2f2d2 c2a2c2|B2=G2B2 d4:|
|:B2|a2c2A2 e2c2A2|a2c2A2 e2f2g2|a2c2A2 e2c2A2|B2=G2B2 d4B2|
a2c2A2 e2c2A2|a2c2A2 e2f2g2|a2g2f2 e2d2c2|B2=G2B2 d4:|
